src/.vuepress/public/assets/websites/6pen.svg

<svg width="388" height="516" viewBox="0 0 388 516" fill="none" xmlns="http://www.w3.org/2000/svg">
<path d="M286.591 183.892L343.542 238.691L295.776 230.6L286.591 183.892Z" fill="#1F1F23"/>
<path d="M91.856 412.285L34.9053 398.677L84.5075 457.89L91.856 412.285Z" fill="#1F1F23"/>
<path d="M80.0985 435.088C55.1136 421.848 35.6402 403.458 21.3106 379.552C6.98106 356.014 0 329.534 0 299.743C0 272.16 4.04167 246.047 12.8598 221.038C21.3106 196.396 35.2727 166.974 55.1136 132.402L133.008 0H254.992L310.106 55.1675L160.564 151.159L162.402 152.998C173.424 149.32 184.447 147.481 195.47 147.481C219.352 147.481 241.765 153.733 262.341 165.87C283.284 178.007 299.818 195.293 311.943 217.728C324.436 240.163 330.314 266.275 330.314 295.698C330.314 327.327 323.333 355.279 309.004 379.552C294.674 403.826 275.201 422.215 249.848 435.455C224.496 448.696 196.205 455.316 163.871 455.316C144.03 455.316 125.292 452.741 108.023 447.225C98.4697 443.914 88.9167 439.869 80.0985 435.088ZM208.697 344.613C220.087 332.844 225.598 317.765 225.598 299.743C225.598 282.458 220.087 268.114 209.432 257.081C198.409 245.679 184.814 240.163 168.28 240.163C149.909 240.163 134.845 245.679 122.72 257.081C110.595 268.482 104.716 282.458 104.716 299.743C104.716 317.765 110.595 332.844 121.985 344.613C133.742 356.382 148.072 362.267 165.708 362.267C183.345 362.267 197.674 356.382 208.697 344.613Z" fill="#1F1F23"/>
<path d="M133.008 491.358C108.023 478.118 88.5493 459.729 74.2198 435.823C59.8902 411.917 52.9092 385.437 52.9092 356.014C52.9092 328.43 56.9508 302.318 65.769 277.309C74.2198 252.299 88.5493 222.877 108.39 188.673L185.182 58.1097C185.917 57.0063 187.019 56.2708 188.489 56.2708H243.602H304.595C306.064 56.2708 307.167 58.1097 306.432 59.213L214.576 207.062C225.599 203.384 237.724 203.752 248.746 203.752C272.629 203.752 295.042 210.004 315.618 222.141C336.561 234.278 353.095 251.564 365.22 273.998C377.712 296.433 383.591 322.546 383.591 351.969C383.591 383.598 376.61 411.549 362.28 435.823C347.951 460.097 328.477 478.486 303.125 491.726C277.773 504.966 249.481 511.587 217.148 511.587C186.284 511.587 157.993 504.966 133.008 491.358ZM261.974 400.884C273.364 389.115 278.875 374.036 278.875 356.014C278.875 338.728 273.364 324.385 262.708 313.351C251.686 301.95 238.091 296.433 221.557 296.433C203.186 296.433 188.121 301.95 175.996 313.351C163.871 324.753 157.993 338.728 157.993 356.014C157.993 374.036 163.871 389.115 175.261 400.884C187.019 412.653 201.349 418.537 218.985 418.537C236.254 418.537 250.583 412.653 261.974 400.884Z" fill="white"/>
<path d="M217.515 516C185.549 516 156.523 509.012 130.803 495.404C105.083 481.796 84.875 462.671 70.178 438.03C55.4811 413.756 48.1326 386.172 48.1326 356.014C48.1326 328.063 52.5417 301.215 60.9924 275.837C69.4432 250.828 83.7727 220.67 103.981 186.466L180.773 55.5352C182.242 52.9608 184.814 51.4896 187.754 51.4896H303.86C306.064 51.4896 308.269 52.9608 309.739 54.7997C311.208 56.6386 310.841 59.5809 309.739 61.4198L223.761 200.074C231.11 198.971 238.458 198.971 245.439 198.971H248.379C272.996 198.971 296.144 205.223 317.822 217.728C339.133 230.232 356.401 248.254 369.261 271.424C381.754 294.594 388.367 321.443 388.367 351.601C388.367 383.966 381.019 413.021 366.322 437.662C351.625 462.304 331.417 481.796 305.33 495.404C279.61 509.012 250.216 516 217.515 516ZM188.489 61.052L112.064 191.247C92.5909 225.083 78.2614 254.506 69.8106 279.148C61.7273 303.421 57.3182 329.534 57.3182 356.382C57.3182 384.701 64.2992 410.814 77.8939 433.984C91.4886 456.787 110.595 475.176 134.845 487.681C159.095 500.553 186.652 507.173 217.148 507.173C248.379 507.173 276.303 500.553 300.92 487.681C325.17 474.808 344.644 456.787 358.239 433.249C371.833 410.078 378.814 382.495 378.814 351.969C378.814 323.281 372.936 297.904 360.811 276.205C349.053 254.506 332.886 237.588 312.678 226.187C292.837 214.418 270.792 208.533 248.011 208.533H245.072C235.151 208.533 224.496 208.533 215.311 211.475L203.186 215.521L299.451 61.052H188.489ZM218.985 423.319C200.246 423.319 184.447 417.066 171.955 404.194C159.462 391.689 153.216 375.507 153.216 356.382C153.216 337.993 159.83 322.178 172.689 310.409C185.549 298.272 201.716 292.388 221.189 292.388C238.826 292.388 253.89 298.64 265.648 310.777C277.405 322.914 283.284 338.361 283.284 356.75C283.284 375.875 277.038 392.057 265.28 404.562C253.155 416.698 237.723 423.319 218.985 423.319ZM221.189 301.215C203.92 301.215 189.958 306.363 178.936 316.661C167.913 326.959 162.402 339.832 162.402 356.014C162.402 372.932 167.545 386.54 178.568 397.574C189.223 408.607 202.818 413.756 219.352 413.756C235.519 413.756 248.379 408.607 258.667 397.574C269.322 386.54 274.098 372.932 274.098 356.014C274.098 339.832 269.322 326.959 259.034 316.294C249.114 306.363 236.621 301.215 221.189 301.215Z" fill="#1F1F23"/>
</svg>

<svg xmlns="http://www.w3.org/2000/svg" width="388" height="516" fill="none" viewBox="0 0 388 516"><path fill="#1F1F23" d="m286.591 183.892 56.951 54.799-47.766-8.091zM91.856 412.285l-56.95-13.608 49.601 59.213z"/><path fill="#1F1F23" d="M80.099 435.088c-24.985-13.24-44.459-31.63-58.788-55.536C6.98 356.014 0 329.534 0 299.743c0-27.583 4.042-53.696 12.86-78.705 8.45-24.642 22.413-54.064 42.254-88.636L133.008 0h121.984l55.114 55.168-149.542 95.991 1.838 1.839q16.533-5.517 33.068-5.517c23.882 0 46.295 6.252 66.871 18.389q31.414 18.205 49.602 51.858c12.493 22.435 18.371 48.547 18.371 77.97 0 31.629-6.981 59.581-21.31 83.854-14.33 24.274-33.803 42.663-59.156 55.903-25.352 13.241-53.643 19.861-85.977 19.861-19.841 0-38.579-2.575-55.848-8.091-9.553-3.311-19.106-7.356-27.924-12.137m128.598-90.475c11.39-11.769 16.901-26.848 16.901-44.87 0-17.285-5.511-31.629-16.166-42.662-11.023-11.402-24.618-16.918-41.152-16.918-18.371 0-33.435 5.516-45.56 16.918s-18.004 25.377-18.004 42.662c0 18.022 5.879 33.101 17.269 44.87 11.757 11.769 26.087 17.654 43.723 17.654q26.455 0 42.989-17.654"/><path fill="#fff" d="M133.008 491.358c-24.985-13.24-44.459-31.629-58.788-55.535-14.33-23.906-21.31-50.386-21.31-79.809 0-27.584 4.04-53.696 12.859-78.705 8.45-25.01 22.78-54.432 42.621-88.636L185.182 58.11c.735-1.104 1.837-1.84 3.307-1.84h116.106c1.469 0 2.572 1.84 1.837 2.943l-91.856 147.849c11.023-3.678 23.148-3.31 34.17-3.31 23.883 0 46.296 6.252 66.872 18.389q31.414 18.206 49.602 51.857c12.492 22.435 18.371 48.548 18.371 77.971 0 31.629-6.981 59.58-21.311 83.854s-33.803 42.663-59.155 55.903-53.644 19.861-85.977 19.861c-30.864 0-59.155-6.621-84.14-20.229m128.966-90.474c11.39-11.769 16.901-26.848 16.901-44.87 0-17.286-5.511-31.629-16.167-42.663-11.022-11.401-24.617-16.918-41.151-16.918-18.371 0-33.436 5.517-45.561 16.918s-18.003 25.377-18.003 42.663c0 18.022 5.878 33.101 17.268 44.87 11.758 11.769 26.088 17.653 43.724 17.653q25.903 0 42.989-17.653"/><path fill="#1F1F23" d="M217.515 516c-31.966 0-60.992-6.988-86.712-20.596q-38.58-20.412-60.625-57.374c-14.697-24.274-22.045-51.858-22.045-82.016 0-27.951 4.409-54.799 12.86-80.177 8.45-25.009 22.78-55.167 42.988-89.371l76.792-130.93c1.469-2.575 4.041-4.046 6.981-4.046H303.86c2.204 0 4.409 1.47 5.879 3.31 1.469 1.839 1.102 4.78 0 6.62l-85.978 138.654c7.349-1.103 14.697-1.103 21.678-1.103h2.94q36.926 0 69.443 18.757c21.311 12.504 38.579 30.526 51.439 53.696 12.493 23.17 19.106 50.019 19.106 80.177 0 32.365-7.348 61.42-22.045 86.061s-34.905 44.134-60.992 57.742C279.61 509.012 250.216 516 217.515 516M188.489 61.052l-76.425 130.195c-19.473 33.836-33.803 63.259-42.253 87.901-8.084 24.273-12.493 50.386-12.493 77.234 0 28.319 6.981 54.432 20.576 77.602 13.595 22.803 32.701 41.192 56.951 53.697 24.25 12.872 51.807 19.492 82.303 19.492 31.231 0 59.155-6.62 83.772-19.492 24.25-12.873 43.724-30.894 57.319-54.432 13.594-23.171 20.575-50.754 20.575-81.28 0-28.688-5.878-54.065-18.003-75.764-11.758-21.699-27.925-38.617-48.133-50.018-19.841-11.769-41.886-17.654-64.667-17.654h-2.939c-9.921 0-20.576 0-29.761 2.942l-12.125 4.046 96.265-154.469zm30.496 362.267c-18.739 0-34.538-6.253-47.03-19.125-12.493-12.505-18.739-28.687-18.739-47.812 0-18.389 6.614-34.204 19.473-45.973 12.86-12.137 29.027-18.021 48.5-18.021 17.637 0 32.701 6.252 44.459 18.389 11.757 12.137 17.636 27.584 17.636 45.973 0 19.125-6.246 35.307-18.004 47.812-12.125 12.136-27.557 18.757-46.295 18.757m2.204-122.104c-17.269 0-31.231 5.148-42.253 15.446-11.023 10.298-16.534 23.171-16.534 39.353 0 16.918 5.143 30.526 16.166 41.56 10.655 11.033 24.25 16.182 40.784 16.182 16.167 0 29.027-5.149 39.315-16.182 10.655-11.034 15.431-24.642 15.431-41.56 0-16.182-4.776-29.055-15.064-39.72-9.92-9.931-22.413-15.079-37.845-15.079"/></svg>
